X:7836
T:Varvarka
O:england
S:A. Humenyuk
Q:72
M:2/4
L:1/16
K:DMix
{Bc^c}d2d2 d4 | {Bc^c}d2d2 d3c | \
B2BG ABcA | G4 z4 :|\
|: {DEF}GFGA B2B2 | A2A2 ABAG | \
F2FD EFGE | D4 z4 :|


